X: 35170
T: Ronnie's
R: jig
M: 6/8
K: Dmajor
FAA dAA|BAG A2 G|FAA DAA|GAG FED|
FAA dAA|BAG A2 G|FAA DAA|G2 E FED|
dBA Az a|agf g3|fdA F2 A|G3 FED|
dBA Az a|agf gag|fdA F2 A|G2 E FED|

